X: 818
T: Gemilerde Talim Var 
C: Sarı Recep
O: Turkey
F: http://compmusic.upf.edu/node/140
N: hicaz--turku--aksak--gemilerde_talim--
N: makam= hicaz
N: form= turku
N: usul= aksak = 9/8
M: 9/8
L: 1/16
K: C _7/8B ^f ^c 
Q: 1/4=138
%%MIDI tuningsystem comma53
e2de =f2ed ^3/4cBAG ABcd e2 | e2 de=f2 ed^3/4cB AG.A6  | 
w:  ARANAĞME  |   | 
e2de =f2ed ^3/4cBAG ABcd e2 | e2 de=f2 ed^3/4cB AGA4ce  | 
w:   |   | 
d2dd d2d2 ^3/4c4 d4 e2 | d2 {^3/4c}dcBc BAA4cd e2ed  | 
w:  *  Ge mi ler de  tâ lim  var    |  Bah *  ri *  ye *  li  *  yâ rim   | 
d2e^3/4f g2=fe edd^3/4c d6 | z2 e=fe2 d2^3/4c4de d2e2  | 
w:  var   |  O  da  git ti  se fe *  *  re    | 
d2d^3/4c BcBA A4 BcB2 c2 | dd d^3/4cBB BAA2 z2c2 d2e2  | 
w:  Ne  tâ *  lih *  siz  *  ba şım  *  *  var    |  Ha ni  be nim  Re *  ce *  bim   Re ce bim   | 
ddd^3/4c BBBA A2z2 c2d2 e2 | dd d^3/4cBB BAA4.A2 .A2.A2  | 
w:  sa rı  li ra  ve re ce *  ğim   Al maz sa   |  ka ra ko la  gi de ce *  ğim   SAZ  | 
e2de =f2ed ^3/4cBAG ABcd e2 | e2 de=f2 ed^3/4cB AG.A6  | 
w:  ARANAĞME  |   | 
e2de =f2ed ^3/4cBAG ABcd e2 | e2 de=f2 ed^3/4cB AGA4ce  | 
w:   |   | 
d2dd d2d2 ^3/4c4 d4 e2 | d2 {^3/4c}dcBc BAA4cd e2ed  | 
w:  *  Ge mi ler de  tâ lim  var    |  Bah *  ri *  ye *  li  *  yâ rim   | 
d2e^3/4f g2=fe edd^3/4c d6 | z2 e=fe2 d2^3/4c4de d2e2  | 
w:  var   |  O  da  git ti  se fe *  *  re    | 
d2d^3/4c BcBA A4 BcB2 c2 | dd d^3/4cBB BAA2 z2c2 d2e2  | 
w:  Ne  tâ *  lih *  siz  *  ba şım  *  *  var    |  Ha ni  be nim  Re *  ce *  bim   Re ce bim   | 
ddd^3/4c BBBA A2z2 c2d2 e2 | dd d^3/4cBB BAA4|
w:  sa rı  li ra  ve re ce *  ğim   Al maz sa   |  ka ra ko la  gi de ce *  ğim    | 


